Numix/16/status/indicator-keyboard-Hu-5.svg

<?xml version="1.0" encoding="UTF-8" standalone="no"?>
<svg
   xmlns:dc="http://purl.org/dc/elements/1.1/"
   xmlns:cc="http://creativecommons.org/ns#"
   xmlns:rdf="http://www.w3.org/1999/02/22-rdf-syntax-ns#"
   xmlns:svg="http://www.w3.org/2000/svg"
   xmlns="http://www.w3.org/2000/svg"
   xmlns:sodipodi="http://sodipodi.sourceforge.net/DTD/sodipodi-0.dtd"
   xmlns:inkscape="http://www.inkscape.org/namespaces/inkscape"
   viewBox="0 0 16 16"
   id="svg2"
   version="1.1"
   inkscape:version="0.91 r13725"
   sodipodi:docname="indicator-keyboard-Hu-5.svg">
  <metadata
     id="metadata14">
    <rdf:RDF>
      <cc:Work
         rdf:about="">
        <dc:format>image/svg+xml</dc:format>
        <dc:type
           rdf:resource="http://purl.org/dc/dcmitype/StillImage" />
      </cc:Work>
    </rdf:RDF>
  </metadata>
  <defs
     id="defs12" />
  <sodipodi:namedview
     pagecolor="#ffffff"
     bordercolor="#666666"
     borderopacity="1"
     objecttolerance="10"
     gridtolerance="10"
     guidetolerance="10"
     inkscape:pageopacity="0"
     inkscape:pageshadow="2"
     inkscape:window-width="640"
     inkscape:window-height="480"
     id="namedview10"
     showgrid="false"
     inkscape:zoom="14.75"
     inkscape:cx="8"
     inkscape:cy="8"
     inkscape:window-x="65"
     inkscape:window-y="24"
     inkscape:window-maximized="0"
     inkscape:current-layer="svg2" />
  <path
     style="fill:#ececec;fill-opacity:1"
     d="M 1.5996094 0 C 0.71320937 2.9605947e-16 0 0.71320937 0 1.5996094 L 0 14.400391 C 2.9605947e-16 15.286791 0.71320937 16 1.5996094 16 L 14.400391 16 C 15.286791 16 16 15.286791 16 14.400391 L 16 1.5996094 C 16 0.71320937 15.286791 0 14.400391 0 L 1.5996094 0 z M 1.3242188 4.859375 L 1.9355469 4.859375 L 1.9355469 7.5683594 L 5.3183594 7.5683594 L 5.3183594 4.859375 L 5.9316406 4.859375 L 5.9316406 11.095703 L 5.3183594 11.095703 L 5.3183594 8.0996094 L 1.9355469 8.0996094 L 1.9355469 11.095703 L 1.3242188 11.095703 L 1.3242188 4.859375 z M 7.4550781 6.4433594 L 8.0410156 6.4433594 L 8.0410156 8.8632812 C 8.0410156 9.1932812 8.0652813 9.4731719 8.1132812 9.7011719 C 8.1612812 9.9291721 8.2396563 10.115766 8.3476562 10.259766 C 8.4556563 10.397766 8.5937187 10.498453 8.7617188 10.564453 C 8.9357187 10.624453 9.144625 10.654297 9.390625 10.654297 C 9.666625 10.654297 9.9073283 10.639375 10.111328 10.609375 C 10.315328 10.579375 10.444047 10.553297 10.498047 10.529297 L 10.498047 6.4433594 L 11.082031 6.4433594 L 11.082031 10.933594 C 10.908031 10.981594 10.674859 11.035703 10.380859 11.095703 C 10.08686 11.155703 9.7267812 11.185547 9.3007812 11.185547 C 8.9527812 11.185547 8.6617344 11.135203 8.4277344 11.033203 C 8.1937344 10.931203 8.0053281 10.787563 7.8613281 10.601562 C 7.7173281 10.415563 7.612875 10.189781 7.546875 9.9257812 C 7.486875 9.6617812 7.4550781 9.3707344 7.4550781 9.0527344 L 7.4550781 6.4433594 z M 12.710938 8.8417969 L 14.537109 8.8417969 L 14.537109 9.1757812 L 13.044922 9.1757812 C 13.040989 9.2498812 13.03511 9.3458906 13.027344 9.4628906 C 13.019544 9.5798906 13.011706 9.6994188 13.003906 9.8242188 C 12.996106 9.9451188 12.986309 10.062681 12.974609 10.175781 C 12.962909 10.288881 12.953113 10.379012 12.945312 10.445312 C 13.245613 10.453112 13.504256 10.490341 13.722656 10.556641 C 13.941056 10.622941 14.121319 10.711119 14.261719 10.824219 C 14.402119 10.937319 14.505966 11.074475 14.572266 11.234375 C 14.642466 11.394275 14.675781 11.572578 14.675781 11.767578 C 14.675781 11.939178 14.648344 12.097894 14.589844 12.246094 C 14.535244 12.394294 14.449031 12.523613 14.332031 12.632812 C 14.215031 12.742012 14.066119 12.828225 13.886719 12.890625 C 13.707319 12.953025 13.4957 12.984375 13.25 12.984375 C 13.1252 12.984375 13.007637 12.974578 12.898438 12.955078 C 12.793137 12.939478 12.697128 12.919884 12.611328 12.896484 C 12.529428 12.873084 12.458891 12.849572 12.400391 12.826172 C 12.341891 12.802772 12.298784 12.783178 12.271484 12.767578 L 12.371094 12.427734 C 12.394494 12.443334 12.433681 12.462928 12.488281 12.486328 C 12.546781 12.509728 12.6134 12.533241 12.6875 12.556641 C 12.7655 12.576141 12.851713 12.593775 12.945312 12.609375 C 13.042812 12.624975 13.1447 12.632812 13.25 12.632812 C 13.445 12.632812 13.605675 12.611259 13.734375 12.568359 C 13.866975 12.521559 13.972781 12.458859 14.050781 12.380859 C 14.128781 12.302859 14.183644 12.212728 14.214844 12.111328 C 14.249944 12.006028 14.267578 11.894337 14.267578 11.773438 C 14.267578 11.617437 14.242106 11.476362 14.191406 11.351562 C 14.140706 11.226762 14.050575 11.120956 13.921875 11.035156 C 13.793175 10.949356 13.620744 10.884697 13.402344 10.841797 C 13.183944 10.794997 12.905712 10.771484 12.570312 10.771484 C 12.593712 10.572584 12.613306 10.392316 12.628906 10.228516 C 12.644506 10.060816 12.658222 9.9001469 12.669922 9.7480469 C 12.681622 9.5920469 12.689459 9.4431281 12.693359 9.2988281 C 12.701159 9.1506281 12.707038 8.9977969 12.710938 8.8417969 z "
     id="path4" />
</svg>

<svg xmlns="http://www.w3.org/2000/svg" viewBox="0 0 16 16">
 <path d="m 1.6 0 c -0.886 0 -1.6 0.713 -1.6 1.6 l 0 12.801 c 0 0.886 0.713 1.6 1.6 1.6 l 12.801 0 c 0.886 0 1.6 -0.713 1.6 -1.6 l 0 -12.801 c 0 -0.886 -0.713 -1.6 -1.6 -1.6 l -12.801 0 z m -0.275 4.859 l 0.611 0 l 0 2.709 l 3.383 0 l 0 -2.709 l 0.613 0 l 0 6.236 l -0.613 0 l 0 -2.996 l -3.383 0 l 0 2.996 l -0.611 0 l 0 -6.236 z m 6.131 1.584 l 0.586 0 l 0 2.42 c 0 0.33 0.024 0.61 0.072 0.838 c 0.048 0.228 0.126 0.415 0.234 0.559 c 0.108 0.138 0.246 0.239 0.414 0.305 c 0.174 0.06 0.383 0.09 0.629 0.09 c 0.276 0 0.517 -0.015 0.721 -0.045 c 0.204 -0.03 0.333 -0.056 0.387 -0.08 l 0 -4.086 l 0.584 0 l 0 4.49 c -0.174 0.048 -0.407 0.102 -0.701 0.162 c -0.294 0.06 -0.654 0.09 -1.08 0.09 c -0.348 0 -0.639 -0.05 -0.873 -0.152 c -0.234 -0.102 -0.422 -0.246 -0.566 -0.432 c -0.144 -0.186 -0.248 -0.412 -0.314 -0.676 c -0.06 -0.264 -0.092 -0.555 -0.092 -0.873 l 0 -2.609 z m 5.256 2.398 l 1.826 0 l 0 0.334 l -1.492 0 c -0.004 0.074 -0.01 0.17 -0.018 0.287 c -0.008 0.117 -0.016 0.237 -0.023 0.361 c -0.008 0.121 -0.018 0.238 -0.029 0.352 c -0.012 0.113 -0.021 0.203 -0.029 0.27 c 0.3 0.008 0.559 0.045 0.777 0.111 c 0.218 0.066 0.399 0.154 0.539 0.268 c 0.14 0.113 0.244 0.25 0.311 0.41 c 0.07 0.16 0.104 0.338 0.104 0.533 c 0 0.172 -0.027 0.33 -0.086 0.479 c -0.055 0.148 -0.141 0.278 -0.258 0.387 c -0.117 0.109 -0.266 0.195 -0.445 0.258 c -0.179 0.062 -0.391 0.094 -0.637 0.094 c -0.125 0 -0.242 -0.01 -0.352 -0.029 c -0.105 -0.016 -0.201 -0.035 -0.287 -0.059 c -0.082 -0.023 -0.152 -0.047 -0.211 -0.07 c -0.059 -0.023 -0.102 -0.043 -0.129 -0.059 l 0.1 -0.34 c 0.023 0.016 0.063 0.035 0.117 0.059 c 0.058 0.023 0.125 0.047 0.199 0.07 c 0.078 0.019 0.164 0.037 0.258 0.053 c 0.098 0.016 0.199 0.023 0.305 0.023 c 0.195 0 0.356 -0.022 0.484 -0.064 c 0.133 -0.047 0.238 -0.109 0.316 -0.188 c 0.078 -0.078 0.133 -0.168 0.164 -0.27 c 0.035 -0.105 0.053 -0.217 0.053 -0.338 c 0 -0.156 -0.025 -0.297 -0.076 -0.422 c -0.051 -0.125 -0.141 -0.231 -0.27 -0.316 c -0.129 -0.086 -0.301 -0.15 -0.52 -0.193 c -0.218 -0.047 -0.497 -0.07 -0.832 -0.07 c 0.023 -0.199 0.043 -0.379 0.059 -0.543 c 0.016 -0.168 0.029 -0.328 0.041 -0.48 c 0.012 -0.156 0.02 -0.305 0.023 -0.449 c 0.008 -0.148 0.014 -0.301 0.018 -0.457 z" style="fill:#ececec;fill-opacity:1"/>
</svg>
